lib/svg/light-bulb.svg

<svg xmlns="http://www.w3.org/2000/svg" width="12" height="16" viewBox="0 0 12 16"><path d="M6.5 0C3.48 0 1 2.19 1 5c0 .92.55 2.25 1 3 1.34 2.25 1.78 2.78 2 4v1h5v-1c.22-1.22.66-1.75 2-4 .45-.75 1-2.08 1-3 0-2.81-2.48-5-5.5-5zm3.64 7.48c-.25.44-.47.8-.67 1.11-.86 1.41-1.25 2.06-1.45 3.23-.02.05-.02.11-.02.17H5c0-.06 0-.13-.02-.17-.2-1.17-.59-1.83-1.45-3.23-.2-.31-.42-.67-.67-1.11C2.44 6.78 2 5.65 2 5c0-2.2 2.02-4 4.5-4 1.22 0 2.36.42 3.22 1.19C10.55 2.94 11 3.94 11 5c0 .66-.44 1.78-.86 2.48zM4 14h5c-.23 1.14-1.3 2-2.5 2s-2.27-.86-2.5-2z"/></svg>

<?xml version="1.0" encoding="UTF-8" standalone="no"?>
<svg width="12px" height="16px" viewBox="0 0 12 16" version="1.1" xmlns="http://www.w3.org/2000/svg" xmlns:xlink="http://www.w3.org/1999/xlink">
    <!-- Generator: Sketch 3.8.3 (29802) - http://www.bohemiancoding.com/sketch -->
    <title>light-bulb</title>
    <desc>Created with Sketch.</desc>
    <defs></defs>
    <g id="Octicons" stroke="none" stroke-width="1" fill="none" fill-rule="evenodd">
        <g id="light-bulb" fill="#000000">
            <path d="M6.5,0 C3.48,0 1,2.19 1,5 C1,5.92 1.55,7.25 2,8 C3.34,10.25 3.78,10.78 4,12 L4,13 L9,13 L9,12 C9.22,10.78 9.66,10.25 11,8 C11.45,7.25 12,5.92 12,5 C12,2.19 9.52,0 6.5,0 L6.5,0 Z M10.14,7.48 C9.89,7.92 9.67,8.28 9.47,8.59 C8.61,10 8.22,10.65 8.02,11.82 C8,11.87 8,11.93 8,11.99 L5,11.99 C5,11.93 5,11.86 4.98,11.82 C4.78,10.65 4.39,9.99 3.53,8.59 C3.33,8.28 3.11,7.92 2.86,7.48 C2.44,6.78 2,5.65 2,5 C2,2.8 4.02,1 6.5,1 C7.72,1 8.86,1.42 9.72,2.19 C10.55,2.94 11,3.94 11,5 C11,5.66 10.56,6.78 10.14,7.48 L10.14,7.48 Z M4,14 L9,14 C8.77,15.14 7.7,16 6.5,16 C5.3,16 4.23,15.14 4,14 L4,14 Z" id="Shape"></path>
        </g>
    </g>
</svg>
